X:1
T:Title
%%score { 1 | ( 2 3 ) }
L:1/8
Q:1/4=106
M:4/4
K:C
V:1 treble nm="Grand Piano"
V:2 bass 
V:3 bass 
V:1
 C2 E>F [EG]4 | [CE]2 [DF]>D C4 | [Ac]2 [GB]>[FA] [Ac]4 | [GB]2 [Ac]>[FA] [EG]2 z2 | A2 G>F G2 F2 | %5
w: ???~????~??????? * * *|||||
 E2 _E>F =E4 | C2 E>F [EG]4 | [CE]2 [DF]>D[K:bass] [C,C]2 z2 | [Ec]>c [EB]>A [EB]>B [EA]>G | %9
w: ||||
 [EA]>A [G,EG]2 [G,EG]4 | [EG]>[FA] [EG]>[CE] [EG]4 | [EG]>[EG] [EA]>[EB] [Ec]4 | [CE]2 [DF]>D C4 | %13
w: ||||
 [GB]>[Ac] [Bd]>[Ac] [GB]>[FA] [EG]2 | [EG][EG][FA][FA] [EG]F E2 | C2 E>G [EG]4 | %16
w: |||
 [FA]>[FA] [FA]2 [FB]>[FB] [FB]2 | [DFG]>G A>B [Ec]4 | [EG]>G [Ec]>c [EB]>A [Ec]>c | %19
w: |||
 [GB]>c [Bd]>c [GB]>A [G,EG]2 | [EG]>G [FA]>A [EG]>E [EG]>G | [CE]>F [EG]>F [CE]>D C2 | %22
w: |||
 z z/ E/ E2- E>[EG] [EG]2- | [EG]/[Ec]/ [Ec]3- [Ec]4 |] %24
w: ||
V:2
 z2 [C,G,]2 z4 | [C,G,]2 z z/ B,/ [C,,C,]4 | [F,,F,]2 [G,B,]2 [F,,F,]4 | %3
 [G,,G,]2 [F,A,]2 [C,,C,]2 z2 | [F,F]2 [E,E]>[D,D] [E,E]2 [F,D]2 | [E,C]2 [D,C]>[F,C] [G,C]4 | %6
 z2 [C,G,]2 z4 | [C,G,]2 z z/ B,/ C,,2 z2 | z z/ E/ z z/ E/ z z/ E/ z z/ E/ | z z/ E/ z z/ E/ C,4 | %10
 [C,G,]2 [C,G,]2 [C,G,]4 | [C,G,]2 [C,A,]2 [C,G,]4 | [C,G,]2 z z/ B,/ [C,E,]4 | %13
 [G,,G,]2 [G,B,]2 [G,,G,]2 [C,G,]2 | [C,,C,]2 [F,A,]2 z D [C,G,C]2 | z2 [C,G,]2 z4 | %16
 [F,,F,]2 [A,C]2 [G,,G,]2 [G,B,]2 | z z/[K:treble] [DF]/ [DF]>[DF][K:bass] [C,G,]4 | %18
 z z/ E/ z z/ E/ z z/ E/ z z/ E/ | z z/[K:treble] A/ z z/ A/[K:bass] z z/ F/ C,2 | %20
 z z/ E/ z z/ F/ z z/ C/ z z/ E/ | z z/ D/ z z/ D/ z z/ B,/ C,2 | %22
 z z/ [C,G,C]/ [C,G,C]2- [C,G,C]>[C,G,] [C,G,]2- | [C,G,]/[C,G,]/ [C,G,]3- [C,G,]4 |] %24
V:3
 [C,,C,]2 C>D [C,,C,]4 | z2 [G,,G,]2 z4 | x8 | x8 | x8 | C,8 | [C,,C,]2 C>D [C,,C,]4 | %7
 z2 [G,,G,]2 z4 | C,2 [C,B,]2 C,2 [C,A,]2 | C,2 C,2 z4 | x8 | x8 | z2 [G,,F,]2 z4 | x8 | %14
 z4 [C,,C,]2 z2 | [C,,C,]2 C>E [C,,C,]4 | x8 | [G,,G,]4[K:treble][K:bass] z4 | C,,2 C,2 C,,2 C,2 | %19
 G,,2[K:treble] G,2[K:bass] G,,2 z2 | C,,2 F,2 C,,2 C,2 | C,,2 C,2 C,,2 z2 | x8 | x8 |] %24

